public/formular-icons/english/lower-l.svg

<svg style="vertical-align:-.025ex" xmlns="http://www.w3.org/2000/svg" width=".674ex" height="1.595ex" viewBox="0 -694 298 705" xmlns:xlink="http://www.w3.org/1999/xlink"><defs><path id="a" d="M117 59q0-33 25-33 37 0 63 105 6 20 10 21 2 1 10 1h16q3 0 5-2t2-7q-1-6-3-16t-11-38-20-47-31-37-46-17q-36 0-67 22T38 85q0 12 1 17l65 258q63 255 63 263 0 3-1 5t-4 4-5 2-8 1-8 1-9 1-10 0h-13q-3 0-8 1t-6 3-1 6q0 2 2 14 5 19 11 21t72 6q15 1 34 2t30 3 11 1q12 0 12-8 0-11-73-300T118 83v-8q0-6-1-10v-6Z"/></defs><g stroke="currentColor" fill="currentColor" stroke-width="0"><use data-c="1D459" xlink:href="#a" transform="scale(1 -1)"/></g></svg>

<svg style="vertical-align: -0.025ex" xmlns="http://www.w3.org/2000/svg" width="0.674ex" height="1.595ex" role="img" focusable="false" viewBox="0 -694 298 705" xmlns:xlink="http://www.w3.org/1999/xlink"><defs><path id="MJX-55-TEX-I-1D459" d="M117 59Q117 26 142 26Q179 26 205 131Q211 151 215 152Q217 153 225 153H229Q238 153 241 153T246 151T248 144Q247 138 245 128T234 90T214 43T183 6T137 -11Q101 -11 70 11T38 85Q38 97 39 102L104 360Q167 615 167 623Q167 626 166 628T162 632T157 634T149 635T141 636T132 637T122 637Q112 637 109 637T101 638T95 641T94 647Q94 649 96 661Q101 680 107 682T179 688Q194 689 213 690T243 693T254 694Q266 694 266 686Q266 675 193 386T118 83Q118 81 118 75T117 65V59Z"></path></defs><g stroke="currentColor" fill="currentColor" stroke-width="0" transform="scale(1,-1)"><g data-mml-node="math"><g data-mml-node="mi"><use data-c="1D459" xlink:href="#MJX-55-TEX-I-1D459"></use></g></g></g></svg>
